X:1
T: The Thorngrove Anniversary Strathspey
C:
R:Strathspey
Q: 128
K:A
M:4/4
L:1/16
|:E2|CE3 F3A B3c e3e|((3f2a2f2) ((3e2c2A2) dB3 B3c|DF3 B3c d3f b3c'|((3d'2c'2b2) ((3a2g2f2) ((3e2d2c2) ((3B2A2G2) |
AE3 E3A BE3 E3B|bA3 c3e a4-a3f|ea3 c3e df3 F3A|GB3 E3D C4 A,2:|
|:g2|a3f g3e f3d e3c|((3d2B2d2) ((3c2B2A2) GB3 e4|b3g a3f g3e f3d|ce3 B3f e6 d2|
ce3 A3c df3 b3a|((3g2f2e2) ((3d2c2B2) ((3A2G2F2) ((3E2D2B,2) |CE3 F3A B3c f3g|((3a2b2c'2) ((3b2a2g2) a4 A2:|
